assets/icons/qvision/sports_rugby.svg

<svg width="24" height="24" viewBox="0 0 24 24" fill="none" xmlns="http://www.w3.org/2000/svg">
<g clip-path="url(#clip0_147_6811)">
<path d="M20.4898 3.50998C19.9298 2.94998 18.3398 2.53998 16.3298 2.53998C13.2498 2.53998 9.17976 3.49998 6.34976 6.32998C1.65976 11.03 2.09976 19.07 3.50976 20.49C4.06976 21.05 5.65976 21.46 7.66976 21.46C10.7498 21.46 14.8198 20.5 17.6498 17.67C22.3398 12.97 21.8998 4.92998 20.4898 3.50998ZM7.75976 7.75998C10.3998 5.11998 14.1098 4.63998 15.7898 4.56998C13.7398 5.50998 11.3298 7.01998 9.17976 9.17998C7.01976 11.34 5.50976 13.76 4.55976 15.81C4.65976 13.33 5.43976 10.07 7.75976 7.75998ZM16.2398 16.24C13.5998 18.88 9.88976 19.36 8.20976 19.43C10.2598 18.49 12.6698 16.98 14.8198 14.82C16.9798 12.66 18.4898 10.24 19.4398 8.18998C19.3398 10.67 18.5598 13.93 16.2398 16.24Z" fill="#323232"/>
</g>
<defs>
<clipPath id="clip0_147_6811">
<rect width="24" height="24" fill="white"/>
</clipPath>
</defs>
</svg>

<svg xmlns="http://www.w3.org/2000/svg" enable-background="new 0 0 24 24" height="24" viewBox="0 0 24 24" width="24"><g><rect fill="none" height="24" width="24"/></g><g><g><path d="M20.49,3.51c-0.56-0.56-2.15-0.97-4.16-0.97c-3.08,0-7.15,0.96-9.98,3.79C1.66,11.03,2.1,19.07,3.51,20.49 c0.56,0.56,2.15,0.97,4.16,0.97c3.08,0,7.15-0.96,9.98-3.79C22.34,12.97,21.9,4.93,20.49,3.51z M7.76,7.76 c2.64-2.64,6.35-3.12,8.03-3.19c-2.05,0.94-4.46,2.45-6.61,4.61c-2.16,2.16-3.67,4.58-4.62,6.63C4.66,13.33,5.44,10.07,7.76,7.76z M16.24,16.24c-2.64,2.64-6.35,3.12-8.03,3.19c2.05-0.94,4.46-2.45,6.61-4.61c2.16-2.16,3.67-4.58,4.62-6.63 C19.34,10.67,18.56,13.93,16.24,16.24z"/></g></g></svg>
